X: 1
T: The Dogs Who Had Their Own Car
C: Jo Anne Rocke 1-25-200
M: C|
L:1/8
K: G
P:A
"G"d3dB2d2|AAB2GED2|"D7"EFG2D2G2 |ABc2A2e2|
"G"d3dc2d2|B2d2ABG2 |"D7"A3AD2A2 |1ddd2A2d2:|2"D7"dAD2"G"G2z2||
P:B
|: "D"D3ED2E2|A3ED2E2|"G"B3ED2E2|d3DB,2D2|
"D"A3ED2E2|G3ED2E2 | "G"F3DB,2D2|1z3B, A,B,C2:|2"D7"B3B ABc2|]
